public/image/hero/figura.svg

<svg width="1420" height="632" viewBox="0 0 1420 632" fill="none" xmlns="http://www.w3.org/2000/svg">
<path d="M331.433 91.0614H71.9328C48.4338 89.0615 5.84346 107.643 2.4328 152.562C-0.566406 192.061 2.10054 442.561 1.93388 562.061C5.43388 614.061 48.2671 630.061 67.4338 630.061L968.433 631.062C1089.93 627.061 1166.43 646.561 1148.43 570.062C1111.93 483.061 1152.91 395.786 1201.93 360.562C1253.43 323.561 1316.2 315.656 1361.93 331.562C1396.43 343.561 1416.93 317.561 1418.93 304.062V73.0614C1418.93 19.4115 1382.43 0.560791 1337.93 1.06108L424.434 1.06126C405.935 0.0612011 370.434 11.0613 364.933 52.0614C360.887 82.2149 348.934 90.0613 331.433 91.0614Z" stroke="#FF0000" stroke-width="0.5"/>
</svg>

<svg xmlns="http://www.w3.org/2000/svg" fill="none" viewBox="0 0 1420 632"><path stroke="red" stroke-width=".5" d="M331.43 91.06H71.93c-23.5-2-66.09 16.58-69.5 61.5-3 39.5-.33 290-.5 409.5 3.5 52 46.34 68 65.5 68l901 1c121.5-4 198 15.5 180-61-36.5-87 4.48-174.27 53.5-209.5 51.5-37 114.27-44.9 160-29 34.5 12 55-14 57-27.5v-231c0-53.65-36.5-72.5-81-72h-913.5c-18.5-1-54 10-59.5 51-4.04 30.15-16 38-33.5 39Z"/></svg>
